public/assets/images/icons/yellow/file-pic.svg

<svg width="16" height="16" xmlns="http://www.w3.org/2000/svg" viewBox="0 0 54 54"><path d="M31 16v-2a2 2 0 0 0-2-2h-4a2 2 0 0 0-2 2v2h-5a2 2 0 0 0-2 2v10a2 2 0 0 0 2 2h18a2 2 0 0 0 2-2V18a2 2 0 0 0-2-2Zm-4 11.8a5 5 0 1 1 5-5 5 5 0 0 1-5 4.97Zm9-5.8h-3v-3h3Z" fill="#ffad00"/><path d="M10 3v48h22.6a6 6 0 0 0 4.28-1.79l5.39-5.48A6 6 0 0 0 44 39.49V3Zm3.09 3.09h27.82V36a3 3 0 0 1-3 3H32v5.91a3 3 0 0 1-3 3H13.09ZM35 46.68V42h4.64Z" fill="#ffad00"/><path fill="#ffad00" d="M18 13.97h4v3h-4z"/></svg>

<svg width="16" height="16" xmlns="http://www.w3.org/2000/svg" viewBox="0 0 54 54"><defs><style>.a{fill:#ffad00;}</style></defs><path class="a" d="M31,16V14a2,2,0,0,0-2-2H25a2,2,0,0,0-2,2v2H18a2,2,0,0,0-2,2V28a2,2,0,0,0,2,2H36a2,2,0,0,0,2-2V18a2,2,0,0,0-2-2Zm-4,11.8a5,5,0,1,1,5-5A5,5,0,0,1,27,27.77ZM36,22H33V19h3Z"/><path class="a" d="M10,3V51H32.6a6,6,0,0,0,4.28-1.79l5.39-5.48A6,6,0,0,0,44,39.49V3Zm3.09,3.09H40.91V36a3,3,0,0,1-3,3H32v5.91a3,3,0,0,1-3,3H13.09ZM35,46.68V42h4.64Z"/><rect class="a" x="18" y="13.97" width="4" height="3"/></svg>
